!!!COM: Palestrina, Giovanni Perluigi da
!!!OPR: Missa O Regem coeli
!!!OTL: Gloria
**kern	**kern	**kern	**kern
*Ibass	*Itenor	*Icalto	*Icant
!Bassus	!Tenor	!Altus	!Cantus
*clefF4	*clefGv2	*clefG2	*clefG2
*k[b-]	*k[b-]	*k[b-]	*k[b-]
*G:dor	*G:dor	*G:dor	*G:dor
*M4/2	*M4/2	*M4/2	*M4/2
=1	=1	=1	=1
0r	0r	1a	0r
.	.	1g	.
=2	=2	=2	=2
0r	0r	2g	1r
.	.	2f	.
.	.	1b-	1dd
=3	=3	=3	=3
0r	0r	1a	1cc
.	.	2r	2cc
.	.	2g	2b-
=4	=4	=4	=4
0r	0r	2g	1ee-
.	.	2a	.
.	.	2.b-	1dd
.	.	4a	.
=5	=5	=5	=5
0r	0r	4g	2r
.	.	4f	.
.	.	2.g	2dd
.	.	.	2dd
.	.	4f	.
.	.	2e	2ee
=6	=6	=6	=6
0r	2r	2.d	2.ff
.	1d	.	.
.	.	4c	4ee
.	.	2B-	2dd
.	2e	2c	4cc
.	.	.	4b-
=7	=7	=7	=7
2r	2f	1d	2a
1G	2g	.	1dd
.	1e	1r	.
2A	.	.	2cc
=8	=8	=8	=8
2.B-	0d	1r	2dd
.	.	.	2dd
4A	.	.	.
4G	.	2r	2.b-
4F	.	.	.
[2G	.	2d	.
.	.	.	4a
=9	=9	=9	=9
4G]	1r	2d	1g
4F	.	.	.
2E	.	2e	.
[1D	2r	2.f	[1a
.	2d	.	.
.	.	4e	.
=10	=10	=10	=10
2D]	2d	2d	1a]
2A	2e	2c#	.
1D	2.f	1d	2r
.	.	.	2dd
.	4e	.	.
=11	=11	=11	=11
0r	2d	1.a	2dd
.	2c#	.	2ee
.	[1d	.	2.ff
.	.	2a	.
.	.	.	4ee
=12	=12	=12	=12
1r	1d]	2f	4dd
.	.	.	4cc
.	.	2f	2.dd
2r	1G	2.g	.
.	.	.	4cc
[2d	.	.	2b-
.	.	4f	.
=13	=13	=13	=13
2d]	1A	1e	0a
2c#	.	.	.
2.d	2r	1d	.
.	2d	.	.
4c	.	.	.
=14	=14	=14	=14
2B-	2d	2r	1r
2c	2e	1g	.
1A	2c	.	2r
.	2c	2f#	[2cc
=15	=15	=15	=15
1G	1d	2.g	2cc]
.	.	.	2b
.	.	4f	.
1A	1r	2e	4cc
.	.	.	4b-
.	.	2f	4a
.	.	.	4g
=16	=16	=16	=16
2F	2r	1d	2a
2G	1d	.	2b-
1E	.	2r	1g
.	2c#	2g	.
=17	=17	=17	=17
1D	2.d	2g	1r
.	.	2f#	.
.	4c	.	.
1r	2B-	2.g	2r
.	2G	.	2dd
.	.	4f	.
=18	=18	=18	=18
1r	1A	2e	2dd
.	.	2e	2cc#
2r	1r	1d	2.dd
2d	.	.	.
.	.	.	4cc
=19	=19	=19	=19
2d	2r	0r	2b-
2c	2g	.	2cc
2.d	2g	.	1a
.	2f#	.	.
4c	.	.	.
=20	=20	=20	=20
2B-	4g	2r	1g
.	4f	.	.
2c	4e	2g	.
.	4d	.	.
1A	2e	2g	2r
.	2c	2f#	2cc
=21	=21	=21	=21
1G	1d	2.g	2cc
.	.	.	2b
.	.	4f	.
1A	2r	2e	2.cc
.	2c	[2f	.
.	.	.	4b-
=22	=22	=22	=22
2F	2c	4f]	2a
.	.	4e	.
2G	2B-	2.d	2.b-
1E-	1G	.	.
.	.	8c	4a
.	.	8B-	.
.	.	2c	[2g
=23	=23	=23	=23
1D	1A	1d	2g]
.	.	.	2f#
[1G	1G	2r	1g
.	.	[2d	.
=24	=24	=24	=24
1G]	2r	4d]	2r
.	.	4d	.
.	2.G	2d	2.b-
1r	.	[1g	.
.	4G	.	4b-
.	2G	.	2b-
=25	=25	=25	=25
2r	1.d	2g]	1a
2.D	.	2f	.
.	.	1f	2a
4D	.	.	.
2D	2d	.	2b
=26	=26	=26	=26
1.A	1.c	1e	1cc
.	.	2e	1a
2F	[2f	[2a	.
=27	=27	=27	=27
1B-	2f]	2a]	2r
.	4e	2g	1dd
.	4d	.	.
1A	1e	2a	.
.	.	2e	2cc#
=28	=28	=28	=28
1D	1d	1f	2dd
.	.	.	2a
1r	1r	2e	2cc
.	.	4d	2b-
.	.	4e	.
=29	=29	=29	=29
0r	1r	4f	4a
.	.	4d	4b-
.	.	4e	4cc
.	.	4f	4a
.	2r	4g	4b-
.	.	4a	4cc
.	[2d	2b-	4dd
.	.	.	4ee
=30	=30	=30	=30
0r	2d]	2.a	2ff
.	2c#	.	2ee
.	.	4g	.
.	2d	2f	4dd
.	.	.	4ee
.	2A	2a	4ff
.	.	.	4cc
=31	=31	=31	=31
0r	2c	4g	2ee
.	.	4f	.
.	2B-	4e	1dd
.	.	4d	.
.	2.A	1e	.
.	.	.	2cc#
.	4G	.	.
=32	=32	=32	=32
2r	2F	[0d	0dd
2.G	2G	.	.
.	1D	.	.
4G	.	.	.
2F#	.	.	.
=33	=33	=33	=33
2G	2r	1d]	0r
2D	2.d	.	.
2F	.	1r	.
.	4d	.	.
2E	2c#	.	.
=34	=34	=34	=34
4D	2d	0r	0r
4E	.	.	.
4F	2A	.	.
4D	.	.	.
4E	2c	.	.
4F	.	.	.
2G	2B-	.	.
=35	=35	=35	=35
2F	4A	0r	0r
.	4B-	.	.
4E	4c	.	.
4F	4A	.	.
4G	4B-	.	.
4F	4c	.	.
4F	[2d	.	.
8E	.	.	.
8D	.	.	.
=36	=36	=36	=36
1E	2d]	2r	1r
.	2c#	1g	.
1D	1d	.	2r
.	.	2f	[2dd
=37	=37	=37	=37
0r	1r	2b-	2dd]
.	.	2.a	2cc
.	2r	.	[1ff
.	.	4g	.
.	[2d	4f	.
.	.	4e	.
=38	=38	=38	=38
0r	2d]	2f	2ff]
.	2c	2g	2ee
.	1f	1a	2cc
.	.	.	2dd
=39	=39	=39	=39
0r	2e	2g	2ee
.	2d	1a	2.ff
.	2f	.	.
.	.	.	4ee
.	2g	2b-	[2dd
=40	=40	=40	=40
1r	2.e-	0g	2dd]
.	.	.	2cc
.	4e-	.	.
[1G	2d	.	2dd
.	[2g	.	[2b-
=41	=41	=41	=41
2G]	2g]	2r	2b-]
2G	2g	1d	2b-
1G	1g	.	1b-
.	.	2d	.
=42	=42	=42	=42
1B-	1f	1d	1dd
1c	1e-	1g	1cc
=43	=43	=43	=43
1.G	1.d	2g	1.b-
.	.	1g	.
2G	2d	2g	2cc
=44	=44	=44	=44
2B-	2d	2f	2b-
2B-	2d	2f	2b-
[1F	2c	1f	1a
.	[2c	.	.
=45	=45	=45	=45
1F]	2c]	1.a	1r
.	1f	.	.
1r	.	.	1cc
.	2e	2g	.
=46	=46	=46	=46
1r	1d	2a	1.ff
.	.	4g	.
.	.	4f	.
1C	1c	1g	.
.	.	.	2ee
=47	=47	=47	=47
1.G	2.B-	2g	2.dd
.	.	2.d	.
.	4c	.	4cc
.	[1d	.	2b-
.	.	4e	.
2F	.	[2f	2a
=48	=48	=48	=48
2D	2d]	2f]	2b-
2F	2A	2c	2.a
2E-	2B-	1e-	.
.	.	.	4g
2C	2c	.	[2g
=49	=49	=49	=49
1D	1A	1d	2g]
.	.	.	2f#
2r	1G	2.B-	[1g
[2G	.	.	.
.	.	4c	.
=50	=50	=50	=50
4G]	1r	2d	0g]
4G	.	.	.
2C	.	2e-	.
1G	2r	1d	.
.	[2d	.	.
=51	=51	=51	=51
2F	4d]	1r	0r
.	4d	.	.
2E	2G	.	.
2.D	1d	2r	.
.	.	[2a	.
4E	.	.	.
=52	=52	=52	=52
2F	2c	4a]	0r
.	.	4a	.
1G	2B-	2d	.
.	2.A	1a	.
2F	.	.	.
.	4B-	.	.
=53	=53	=53	=53
2E	2c	2g	0r
2D	2.d	2f	.
1A	.	2e	.
.	4c	.	.
.	[2c	2f	.
=54	=54	=54	=54
0G	2c]	2.g	2r
.	4B-	.	2.dd
.	4A	4f	.
.	2.B-	4g	.
.	.	4a	4dd
.	.	[2b-	2g
.	8A	.	.
.	8G	.	.
=55	=55	=55	=55
0r	4B-	2b-]	1dd
.	4c	.	.
.	4d	4a	.
.	4e	4g	.
.	2f	2a	2cc
.	2g	[2g	2b-
=56	=56	=56	=56
2r	1d	2g]	2.a
2.d	.	4f	.
.	.	4e	4g
.	2r	2f	2a
4d	.	.	.
2G	[2g	2g	[2b-
=57	=57	=57	=57
2.d	2g]	1a	4b-]
.	.	.	4a
.	2f	.	1a
4c	.	.	.
1B-	2.d	2r	.
.	.	[2d	2g
.	4e	.	.
=58	=58	=58	=58
1A	2f	2d]	0a
.	2e	2c	.
2r	2.c	2.A	.
[2A	.	.	.
.	4d	4B	.
=59	=59	=59	=59
4A]	2e	2c	2r
4A	.	.	.
2D	2f	2d	1dd
2.A	2e	2e	.
.	2A	[2f	2cc
4G	.	.	.
=60	=60	=60	=60
2F	1d	4f]	2a
.	.	4e	.
1G	.	4d	2.b-
.	.	4c	.
.	2B-	2d	.
.	.	.	4a
2C	2c	2e-	[2g
=61	=61	=61	=61
1D	1A	1d	2g]
.	.	.	2f#
1G	1G	1d	1g
=62	=62	=62	=62
0r	0r	1g	0r
.	.	2f	.
.	.	[2g	.
=63	=63	=63	=63
0r	0r	4g]	1r
.	.	4f	.
.	.	4g	.
.	.	4e-	.
.	.	2f	1dd
.	.	2g	.
=64	=64	=64	=64
0r	0r	2e-	2cc
.	.	2d	2.dd
.	.	1g	.
.	.	.	4cc
.	.	.	4dd
.	.	.	4b-
=65	=65	=65	=65
1r	0r	2f	2cc
.	.	1d	2dd
2r	.	.	2b-
[2D	.	2d	2a
=66	=66	=66	=66
2D]	2r	2.f	1dd
2D	1A	.	.
.	.	4g	.
2.F	.	[1a	[1cc
.	2A	.	.
4G	.	.	.
=67	=67	=67	=67
4A	2.c	2a]	1cc]
4B-	.	.	.
1c	.	4g	.
.	4d	4f	.
.	2e	2g	1r
2A	[2f	2a	.
=68	=68	=68	=68
1B-	4f]	1d	1r
.	4e	.	.
.	1d	.	.
1A	.	1e	2r
.	2c#	.	[2a
=69	=69	=69	=69
1D	1d	1f	2a]
.	.	.	2a
1r	2.A	2e	2.cc
.	.	[2a	.
.	4B-	.	4dd
=70	=70	=70	=70
0r	2c	4a]	2ee
.	.	4g	.
.	2d	4f	2.ff
.	.	4e	.
.	1B-	1d	.
.	.	.	4ee
.	.	.	[2dd
=71	=71	=71	=71
1r	1A	1e	2dd]
.	.	.	2cc
1G	1r	2.d	[1dd
.	.	8c	.
.	.	8B-	.
=72	=72	=72	=72
2F	0r	2A	1dd]
2.G	.	2.B-	.
.	.	.	1g
4F	.	4A	.
4G	.	4B-	.
4E	.	4c	.
=73	=73	=73	=73
2F	2r	1d	0r
2G	2d	.	.
2E	2c	1r	.
2D	[2d	.	.
=74	=74	=74	=74
1G	4d]	1r	0r
.	4c	.	.
.	4d	.	.
.	4B-	.	.
1F	2c	2r	.
.	2d	[2f	.
=75	=75	=75	=75
0r	2B-	2f]	2r
.	2A	2f	1a
.	1d	1f	.
.	.	.	2a
=76	=76	=76	=76
1.F	1c	2r	1.a
.	.	1a	.
.	2r	.	.
2F	[2f	2a	[2cc
=77	=77	=77	=77
0F	2f]	0a	2cc]
.	2f	.	2cc
.	[1f	.	1cc
=78	=78	=78	=78
1.B-	1f]	1.d	1.dd
.	2r	.	.
2G	[2g	2d	2dd
=79	=79	=79	=79
1c	2g]	2e	1cc
.	2g	2e	.
1F	1f	4f	1a
.	.	4e	.
.	.	4d	.
.	.	4c	.
=80	=80	=80	=80
1G	1d	4B-	1b-
.	.	4c	.
.	.	4d	.
.	.	4B-	.
1C	1e	1c	2g
.	.	.	[2cc
=81	=81	=81	=81
1.F	2c	1.A	4cc]
.	.	.	4b-
.	2.f	.	1a
.	4e	.	.
2G	[2d	2B	[2g
=82	=82	=82	=82
1A	2d]	1c	2g]
.	1c	.	2f#
1G	.	1d	[1g
.	2B	.	.
=83	=83	=83	=83
2r	1c	0e	1g]
2c	.	.	.
1c	2r	.	1r
.	2g	.	.
=84	=84	=84	=84
2B-	1g	0r	0r
2G	.	.	.
2.B-	2f	.	.
.	2d	.	.
4B-	.	.	.
=85	=85	=85	=85
2A	2.f	0r	0r
4F	.	.	.
4G	4f	.	.
4A	2e	.	.
4G	.	.	.
4A	4c	.	.
4B-	4d	.	.
=86	=86	=86	=86
2.c	4e	0r	2r
.	4f	.	.
.	1g	.	2cc
4B-	.	.	.
1A	.	.	1cc
.	2f#	.	.
=87	=87	=87	=87
0G	2g	2r	2b-
.	2.G	2g	2g
.	.	1g	2.b-
.	4A	.	.
.	4B-	.	.
.	4c	.	4b-
=88	=88	=88	=88
0r	0d	2f	2a
.	.	2d	4f
.	.	.	4g
.	.	2.f	4a
.	.	.	4g
.	.	.	4a
.	.	4f	4b-
=89	=89	=89	=89
0r	1A	2e	1.cc
.	.	4c	.
.	.	4d	.
.	1r	4e	.
.	.	4f	.
.	.	[2g	2b-
=90	=90	=90	=90
1r	2r	2g]	1a
.	1d	4f	.
.	.	4e	.
2r	.	1f	1a
[2D	2d	.	.
=91	=91	=91	=91
2D]	1f	1d	0r
2D	.	.	.
2C	2e-	2r	.
2BB-	[2d	[2g	.
=92	=92	=92	=92
1E-	2d]	2g]	1r
.	2c	2g	.
1D	1d	2f	2r
.	.	2d	[2a
=93	=93	=93	=93
2r	0r	2f	2a]
1A	.	4e	2a
.	.	4d	.
.	.	2e	1cc
2A	.	2c	.
=94	=94	=94	=94
2G	1r	0d	2b-
2F	.	.	1a
1B-	2r	.	.
.	[2d	.	2g
=95	=95	=95	=95
1A	2d]	1e	2.a
.	2c#	.	.
.	.	.	4g
1r	2d	2r	2f
.	2A	[2a	[2e
=96	=96	=96	=96
0r	2c	2a]	2e]
.	2B-	2g	2d
.	4A	2a	1e
.	4B-	.	.
.	4c	2e	.
.	4A	.	.
=97	=97	=97	=97
2r	1B-	4g	1d
.	.	4f	.
2.d	.	4f	.
.	.	8e	.
.	.	8d	.
.	1A	1e	1r
8c	.	.	.
8B	.	.	.
2c#	.	.	.
=98	=98	=98	=98
2d	2r	1f	1r
2A	2.a	.	.
2c	.	2e	2r
.	8g	.	.
.	8f	.	.
2B-	2g	2d	[2dd
=99	=99	=99	=99
2.A	2a	1e	4dd]
.	.	.	8cc
.	.	.	8b
.	2e	.	2cc#
4G	.	.	.
4F	2.f	1r	2dd
4E	.	.	.
2F	.	.	2a
.	4e	.	.
=100	=100	=100	=100
1G	0d	2r	2b-
.	.	2.g	2b-
1D	.	.	2.a
.	.	8f	.
.	.	8e	.
.	.	2f#	.
.	.	.	8g
.	.	.	8a
=101	=101	=101	=101
2r	1G	2g	1b-
1d	.	2d	.
.	1A	2f	[1a
2c#	.	2e	.
=102	=102	=102	=102
2d	2r	1f	1a]
2A	1a	.	.
2c	.	2e	1r
2B-	2g	[2d	.
=103	=103	=103	=103
1A	2a	2d]	1r
.	2e	2c#	.
2.B-	2g	1d	2r
.	2f	.	[2dd
4A	.	.	.
=104	=104	=104	=104
2G	1e	2r	2dd]
2A	.	2.a	2cc#
1D	1d	.	2dd
.	.	4g	.
.	.	2f	2a
=105	=105	=105	=105
0r	2r	2e	2cc
.	1d	4d	2b-
.	.	4e	.
.	.	4f	2a
.	.	4d	.
.	2c#	2e	2ee
=106	=106	=106	=106
0r	2d	1a	2.ff
.	2A	.	.
.	.	.	8ee
.	.	.	8dd
.	2c	4g	2ee
.	.	4f	.
.	2B-	4e	[2dd
.	.	4d	.
=107	=107	=107	=107
0r	1A	2e	2dd]
.	.	2e	2cc#
.	1r	1d	1dd
=108	=108	=108	=108
0A	1.e	0a	0cc
.	2f#	.	.
=109	=109	=109	=109
1G	1g	1d	1b-
1F	1c	[1f	[1a
=110	=110	=110	=110
0B-	0d	2f]	2a]
.	.	2e	4g
.	.	.	4f
.	.	[1d	1g
=111	=111	=111	=111
0A	0e	2d]	[0a
.	.	4c	.
.	.	4B	.
.	.	1c#	.
=112	=112	=112	=112
2r	2r	1d	1a]
2D	2d	.	.
2F	1d	1r	1r
2G	.	.	.
=113	=113	=113	=113
2A	2c	0r	0r
2.B-	2.d	.	.
4A	4c	.	.
[2G	2B-	.	.
=114	=114	=114	=114
2G]	2A	1r	1r
2F#	2A	.	.
1G	1G	2r	2r
.	.	2d	2dd
=115	=115	=115	=115
1r	0r	2f	1dd
.	.	2g	.
2r	.	2a	2cc
2B-	.	[2b-	[2dd
=116	=116	=116	=116
2B-	0r	4b-]	2dd]
.	.	4a	.
2c	.	1g	4cc
.	.	.	4b-
2.d	.	.	2a
.	.	2f#	2a
4c	.	.	.
=117	=117	=117	=117
4B-	2r	1g	1.b-
4A	.	.	.
1G	2B-	.	.
.	2B-	1r	.
4F	2c	.	4a
4E	.	.	4g
=118	=118	=118	=118
1D	1d	2r	1f
.	.	2f	.
1r	[1e-	1g	2r
.	.	.	2b-
=119	=119	=119	=119
0r	1e-]	1g	2b-
.	.	.	2cc
.	1d	2a	2.dd
.	.	2d	.
.	.	.	8cc
.	.	.	8b-
=120	=120	=120	=120
1r	2d	2f	2a
.	2G	2.g	2.b-
2r	1d	.	.
.	.	4f	4a
2B-	.	[2f	2f
=121	=121	=121	=121
2B-	1r	2f]	1g
2c	.	2e	.
2d	2r	1f	[1f
[2d	2B-	.	.
=122	=122	=122	=122
4d]	2B-	2r	1f]
8c	.	.	.
8B-	.	.	.
2A	2c	2f	.
2.B-	2.d	2f	1r
.	.	2g	.
4A	8c	.	.
.	8B-	.	.
=123	=123	=123	=123
2F	2A	2a	1r
2.G	2G	2.b-	.
.	1B-	.	1b-
4F	.	4a	.
2D	.	2f	.
=124	=124	=124	=124
1E-	2.G	1g	2b-
.	.	.	2cc
.	4A	.	.
1D	4B-	2f	2.dd
.	4c	.	.
.	4d	[2d	.
.	4e	.	8cc
.	.	.	8b-
=125	=125	=125	=125
1r	2f	2d]	2a
.	2.g	2B-	2.b-
2r	.	[1d	.
.	4f	.	4a
2BB-	[2f	.	2f
=126	=126	=126	=126
2BB-	2f]	2d]	1g
2C	2e	4c	.
.	.	4B-	.
2.D	2f	2A	2.f
.	[2d	[2f	.
4E	.	.	4g
=127	=127	=127	=127
2F	4d]	4f]	2a
.	4c	4e	.
1G	4B-	4d	2.b-
.	4A	4c	.
.	2B-	2d	.
.	.	.	4a
2C	2c	2e-	[2g
=128	=128	=128	=128
1D	1A	1d	2g]
.	.	.	2f#
[1G	2.G	2.B-	[1g
.	4A	4c	.
=129	=129	=129	=129
1G]	1B	1d	1g]
[1C	[1c	[1e-	[1g
=130	=130	=130	=130
1C]	1c]	1e-]	1g]
[1G	[1B	[1d	[1g
=131	=131	=131	=131
1G_	1B_	1d_	1g_
1G_	1B_	1d_	1g_
=132	=132	=132	=132
1G]	1B]	1d]	1g]
==	==	==	==
*-	*-	*-	*-
!!!CDT: 1525/^1526/-1594/2/2
!!!OCY: Italia
!!!AGN: Mass (Parody)
!!!AST: renaissance, vocal
!!!ASW: Motet 1532 (Silva)
!!!PWK: Masses, Book I
!!!RNB: Cadence finals: D
!!!YOR: Le Opere Complete, v. 1, p. 35
!!!YOO: Rome, Italy: Fratelli Scalera
!!!END: 1992//
!!!EED: John Miller
!!!YEC: Copyright 2000, John Miller
!!!YEN: United States of America
!!!YEM: Rights to all derivative electronic formats reserved.
!!!YEM: Refer to licensing agreement for further details.
!!!YEM: This file must be accompanied by the licensing agreement.
!!!YEM: A copy of the licensing agreement may be found at http://www.music-cog.ohio-state.edu/HumdrumDatabases/Palestrina/license.txt
!!!EMD: converted to Humdrum by Bret Aarden
